public/assets/images/service/12.svg

<svg width="52" height="56" viewBox="0 0 52 56" fill="none" xmlns="http://www.w3.org/2000/svg">
<path d="M0.912279 19.8709C0.670328 19.8709 0.438286 19.9661 0.2672 20.1355C0.0961148 20.3049 0 20.5346 0 20.7742V24.3871C0 24.6266 0.0961148 24.8564 0.2672 25.0257C0.438286 25.1951 0.670328 25.2903 0.912279 25.2903H2.90139C3.18748 26.5178 3.6619 27.6946 4.30813 28.7798L2.09174 30.9742C2.00702 31.058 1.93982 31.1576 1.89397 31.2672C1.84812 31.3768 1.82453 31.4942 1.82453 31.6129C1.82453 31.7315 1.84812 31.8489 1.89397 31.9585C1.93982 32.0681 2.00702 32.1677 2.09174 32.2516L4.82858 34.9612C4.9133 35.0451 5.01387 35.1116 5.12455 35.157C5.23524 35.2024 5.35387 35.2258 5.47368 35.2258C5.59348 35.2258 5.71212 35.2024 5.8228 35.157C5.93349 35.1116 6.03406 35.0451 6.11877 34.9612L8.33516 32.7668C9.43121 33.4067 10.6198 33.8764 11.8596 34.1596V37.0322C11.8596 37.2718 11.9557 37.5015 12.1268 37.6709C12.2979 37.8403 12.53 37.9354 12.7719 37.9354H15.9706C16.5549 40.1793 17.6759 42.2511 19.2389 43.9758C20.8019 45.7006 22.7611 47.0277 24.9511 47.8452C27.1411 48.6628 29.4976 48.9466 31.8216 48.6729C34.1457 48.3992 36.3692 47.5759 38.3043 46.2725L47.3278 55.2063C47.5819 55.458 47.8837 55.6576 48.2157 55.7937C48.5478 55.9299 48.9037 56 49.2631 56C49.6225 56 49.9784 55.9299 50.3105 55.7937C50.6425 55.6576 50.9442 55.458 51.1984 55.2063C51.4525 54.9547 51.6541 54.656 51.7917 54.3272C51.9292 53.9985 52 53.6461 52 53.2903C52 52.9344 51.9292 52.582 51.7917 52.2533C51.6541 51.9245 51.4525 51.6258 51.1984 51.3742L42.1749 42.4403C44.1754 39.5313 45.0329 35.9987 44.586 32.5073C44.1392 29.016 42.4187 25.8068 39.7486 23.4838H41.0526C41.2945 23.4838 41.5266 23.3887 41.6977 23.2193C41.8687 23.0499 41.9649 22.8202 41.9649 22.5806V19.1326C42.1447 18.6606 44.7017 11.9366 44.7017 11.7419C44.7017 9.75573 44.136 8.18864 43.0204 7.08399C41.9048 5.97935 40.3218 5.41935 38.3157 5.41935C36.3096 5.41935 34.7268 5.97946 33.6111 7.08399C32.4954 8.18852 31.9298 9.75573 31.9298 11.7419C31.9298 11.8502 34.6666 19.1314 34.6666 19.1314V20.5943C33.1948 20.1141 31.6549 19.8699 30.1052 19.8709H26.2916C26.0055 18.6435 25.531 17.4666 24.8848 16.3814L27.1012 14.1871C27.1859 14.1032 27.2531 14.0036 27.299 13.894C27.3448 13.7844 27.3684 13.667 27.3684 13.5484C27.3684 13.4298 27.3448 13.3123 27.299 13.2027C27.2531 13.0931 27.1859 12.9936 27.1012 12.9097L24.3644 10.2C24.2796 10.1161 24.1791 10.0496 24.0684 10.0042C23.9577 9.9588 23.8391 9.93544 23.7193 9.93544C23.5995 9.93544 23.4808 9.9588 23.3701 10.0042C23.2595 10.0496 23.1589 10.1161 23.0742 10.2L20.8578 12.3944C19.7617 11.7546 18.5731 11.2849 17.3333 11.0016V8.12902C17.3333 7.88947 17.2372 7.65973 17.0661 7.49035C16.895 7.32096 16.663 7.2258 16.421 7.2258H12.7719C12.53 7.2258 12.2979 7.32096 12.1268 7.49035C11.9557 7.65973 11.8596 7.88947 11.8596 8.12902V11.0016C10.6198 11.2849 9.43121 11.7546 8.33516 12.3944L6.11877 10.2C6.03406 10.1161 5.93349 10.0496 5.8228 10.0042C5.71212 9.9588 5.59348 9.93544 5.47368 9.93544C5.35387 9.93544 5.23524 9.9588 5.12455 10.0042C5.01387 10.0496 4.9133 10.1161 4.82858 10.2L2.09174 12.9097C2.00702 12.9936 1.93982 13.0931 1.89397 13.2027C1.84812 13.3123 1.82453 13.4298 1.82453 13.5484C1.82453 13.667 1.84812 13.7844 1.89397 13.894C1.93982 14.0036 2.00702 14.1032 2.09174 14.1871L4.30813 16.3814C3.6619 17.4666 3.18748 18.6435 2.90139 19.8709H0.912279ZM49.9082 52.6517C49.9949 52.7351 50.0641 52.8347 50.1116 52.9449C50.159 53.055 50.184 53.1733 50.1848 53.293C50.1857 53.4128 50.1625 53.5315 50.1167 53.6422C50.0708 53.753 50.0031 53.8536 49.9176 53.9383C49.8321 54.023 49.7305 54.0899 49.6186 54.1353C49.5067 54.1807 49.3868 54.2037 49.2659 54.2028C49.1449 54.2019 49.0254 54.1772 48.9142 54.1302C48.803 54.0832 48.7024 54.0147 48.6181 53.9288L39.7558 45.1547C40.212 44.7557 40.6429 44.3292 41.0458 43.8774L49.9082 52.6517ZM33.7558 11.5821C33.8099 8.69117 35.3434 7.2258 38.3157 7.2258C41.2921 7.2258 42.8254 8.69467 42.8758 11.5926C42.6193 12.29 41.3726 15.5697 40.4218 18.0645H36.211L33.7558 11.5821ZM36.4912 19.8709H40.1403V21.6774H37.1649C36.9438 21.5559 36.7192 21.4399 36.4912 21.3293V19.8709ZM42.8771 34.3225C42.8771 36.8231 42.1283 39.2676 40.7253 41.3469C39.3223 43.4262 37.3281 45.047 34.9948 46.0043C32.6616 46.9616 30.094 47.2126 27.6168 46.7253C25.1395 46.2381 22.8638 45.0347 21.0772 43.2671C19.2907 41.4995 18.0736 39.2472 17.5798 36.7948C17.086 34.3425 17.3377 31.8002 18.303 29.4895C19.2683 27.1787 20.904 25.2032 23.0031 23.8127C25.1023 22.4222 27.5708 21.6791 30.0964 21.6774H30.1052C33.4914 21.6812 36.7377 23.0147 39.1321 25.3853C41.5265 27.7559 42.8733 30.97 42.8771 34.3225ZM14.5965 27.0967C13.6943 27.0967 12.8124 26.8319 12.0623 26.3356C11.3122 25.8394 10.7275 25.1341 10.3823 24.3089C10.037 23.4837 9.94672 22.5756 10.1227 21.6996C10.2987 20.8235 10.7332 20.0188 11.3711 19.3872C12.009 18.7556 12.8218 18.3255 13.7066 18.1513C14.5914 17.977 15.5086 18.0664 16.342 18.4083C17.1755 18.7501 17.8879 19.3289 18.3891 20.0716C18.8903 20.8143 19.1579 21.6874 19.1579 22.5806C19.1565 23.778 18.6755 24.9259 17.8204 25.7725C16.9652 26.6192 15.8058 27.0954 14.5965 27.0967ZM4.54897 20.9229C4.79965 19.4376 5.37007 18.0231 6.22152 16.7754C6.34429 16.6014 6.40129 16.3903 6.38252 16.1789C6.36376 15.9675 6.27042 15.7694 6.11889 15.6194L4.02692 13.5484L5.47368 12.116L7.56542 14.1871C7.71698 14.3371 7.91706 14.4295 8.13056 14.4481C8.34406 14.4667 8.55735 14.4102 8.73302 14.2887C9.99329 13.4457 11.422 12.8809 12.9221 12.6327C13.135 12.5975 13.3285 12.4887 13.468 12.3256C13.6076 12.1625 13.6842 11.9557 13.6842 11.7419V9.03225H15.5088V11.7419C15.5087 11.9557 15.5853 12.1625 15.7249 12.3257C15.8644 12.4888 16.0579 12.5976 16.2708 12.6328C17.771 12.881 19.1997 13.4458 20.4599 14.2888C20.6356 14.4103 20.8489 14.4668 21.0624 14.4482C21.2759 14.4296 21.476 14.3372 21.6275 14.1872L23.7193 12.116L25.166 13.5484L23.0742 15.6194C22.9226 15.7694 22.8293 15.9675 22.8105 16.1789C22.7918 16.3903 22.8488 16.6014 22.9715 16.7754C23.8226 18.0226 24.3929 19.4364 24.6437 20.9209C23.3168 21.4535 22.0762 22.1763 20.9617 23.0661C20.9741 22.9054 20.9824 22.7438 20.9824 22.5801C20.983 21.2369 20.5517 19.9285 19.7511 18.8442C18.9504 17.76 17.822 16.9562 16.5291 16.5493C15.2363 16.1424 13.8462 16.1535 12.5602 16.5811C11.2741 17.0086 10.1589 17.8303 9.3761 18.9272C8.59326 20.0242 8.18342 21.3393 8.20592 22.6823C8.22843 24.0252 8.68212 25.3262 9.50128 26.3968C10.3205 27.4674 11.4626 28.2521 12.7622 28.6371C14.0619 29.0222 15.4516 28.9876 16.7301 28.5385C15.9226 30.3619 15.5067 32.3316 15.5088 34.3225C15.5089 34.9264 15.5469 35.5298 15.6228 36.129H13.6842V33.4193C13.6842 33.2055 13.6076 32.9987 13.4681 32.8356C13.3285 32.6724 13.1351 32.5636 12.9221 32.5284C11.422 32.2802 9.99329 31.7154 8.73302 30.8724C8.55735 30.7509 8.34406 30.6945 8.13056 30.713C7.91706 30.7316 7.71698 30.824 7.56542 30.9741L5.47368 33.0453L4.02692 31.6129L6.11877 29.5419C6.27031 29.3918 6.36364 29.1937 6.38241 28.9824C6.40118 28.771 6.34418 28.5598 6.2214 28.3859C5.36995 27.1381 4.79954 25.7236 4.54885 24.2384C4.51331 24.0275 4.4034 23.836 4.23865 23.6979C4.07391 23.5597 3.86502 23.4839 3.64912 23.4838H1.82456V21.6774H3.64912C3.86504 21.6774 4.07396 21.6016 4.23872 21.4634C4.40349 21.3253 4.51342 21.1337 4.54897 20.9229Z" fill="#20282D"/>
<path d="M28.377 5.01538C28.2688 5.22963 28.251 5.47766 28.3275 5.70491C28.404 5.93217 28.5685 6.12003 28.7849 6.22717L30.6095 7.13039C30.7167 7.18454 30.8338 7.21713 30.9538 7.22628C31.0739 7.23543 31.1946 7.22097 31.3089 7.18372C31.4233 7.14647 31.5291 7.08718 31.6202 7.00925C31.7113 6.93133 31.786 6.83632 31.8398 6.7297C31.8937 6.62308 31.9257 6.50697 31.934 6.38805C31.9423 6.26912 31.9267 6.14975 31.8882 6.03681C31.8497 5.92386 31.789 5.81959 31.7096 5.72999C31.6302 5.64039 31.5336 5.56723 31.4255 5.51475L29.601 4.61153C29.3846 4.5044 29.134 4.48676 28.9045 4.56249C28.675 4.63823 28.4852 4.80114 28.377 5.01538Z" fill="#20282D"/>
<path d="M37.4035 0.903225V2.70967C37.4035 2.94922 37.4996 3.17896 37.6707 3.34835C37.8417 3.51774 38.0738 3.6129 38.3157 3.6129C38.5577 3.6129 38.7897 3.51774 38.9608 3.34835C39.1319 3.17896 39.228 2.94922 39.228 2.70967V0.903225C39.228 0.663675 39.1319 0.433936 38.9608 0.264548C38.7897 0.0951609 38.5577 0 38.3157 0C38.0738 0 37.8417 0.0951609 37.6707 0.264548C37.4996 0.433936 37.4035 0.663675 37.4035 0.903225Z" fill="#20282D"/>
<path d="M32.434 0.998628C32.2177 1.10577 32.0531 1.29363 31.9766 1.52088C31.9001 1.74814 31.9179 1.99617 32.0261 2.21042L32.9384 4.01687C32.9914 4.1239 33.0653 4.21948 33.1558 4.2981C33.2463 4.37673 33.3516 4.43684 33.4657 4.47497C33.5798 4.5131 33.7004 4.5285 33.8205 4.52027C33.9406 4.51204 34.0579 4.48036 34.1656 4.42704C34.2732 4.37373 34.3692 4.29983 34.4479 4.20962C34.5266 4.11941 34.5865 4.01467 34.6241 3.90143C34.6617 3.7882 34.6764 3.6687 34.6671 3.54985C34.6579 3.431 34.6249 3.31513 34.5703 3.20893L33.658 1.40248C33.5498 1.18824 33.36 1.02533 33.1305 0.949596C32.901 0.873859 32.6504 0.891497 32.434 0.998628Z" fill="#20282D"/>
<path d="M42.9735 1.40248L42.0612 3.20893C42.0065 3.31513 41.9736 3.431 41.9644 3.54985C41.9551 3.6687 41.9697 3.7882 42.0074 3.90143C42.045 4.01467 42.1049 4.11941 42.1836 4.20962C42.2623 4.29983 42.3582 4.37373 42.4659 4.42704C42.5736 4.48036 42.6909 4.51204 42.811 4.52027C42.9311 4.5285 43.0517 4.5131 43.1658 4.47497C43.2798 4.43684 43.3852 4.37673 43.4757 4.2981C43.5662 4.21948 43.64 4.1239 43.6931 4.01687L44.6053 2.21042C44.66 2.10422 44.6929 1.98835 44.7022 1.8695C44.7114 1.75064 44.6968 1.63115 44.6592 1.51792C44.6216 1.40468 44.5617 1.29994 44.483 1.20973C44.4043 1.11951 44.3083 1.04562 44.2006 0.992304C44.0929 0.938988 43.9757 0.907304 43.8555 0.899078C43.7354 0.890853 43.6149 0.90625 43.5008 0.94438C43.3867 0.982511 43.2814 1.04262 43.1909 1.12124C43.1004 1.19987 43.0265 1.29545 42.9735 1.40248Z" fill="#20282D"/>
<path d="M47.0305 4.61153L45.206 5.51475C45.0979 5.56723 45.0013 5.64039 44.9219 5.72999C44.8425 5.81959 44.7818 5.92386 44.7433 6.03681C44.7048 6.14975 44.6892 6.26912 44.6975 6.38805C44.7058 6.50697 44.7378 6.62308 44.7917 6.7297C44.8455 6.83632 44.9202 6.93133 45.0113 7.00925C45.1024 7.08718 45.2082 7.14647 45.3225 7.18372C45.4369 7.22097 45.5576 7.23543 45.6777 7.22628C45.7977 7.21713 45.9147 7.18454 46.022 7.13039L47.8466 6.22717C47.9547 6.17469 48.0512 6.10154 48.1306 6.01193C48.21 5.92233 48.2707 5.81806 48.3092 5.70511C48.3478 5.59217 48.3633 5.4728 48.355 5.35388C48.3467 5.23495 48.3147 5.11884 48.2608 5.01222C48.207 4.9056 48.1324 4.81059 48.0412 4.73267C47.9501 4.65475 47.8443 4.59545 47.73 4.5582C47.6156 4.52095 47.4949 4.50649 47.3749 4.51564C47.2548 4.52479 47.1378 4.55738 47.0305 4.61153Z" fill="#20282D"/>
<path d="M19.1579 34.3225C19.1579 36.4662 19.7999 38.5618 21.0028 40.3442C22.2057 42.1266 23.9155 43.5158 25.9159 44.3362C27.9162 45.1565 30.1174 45.3712 32.2409 44.953C34.3645 44.5348 36.3152 43.5025 37.8462 41.9867C39.3772 40.4708 40.4198 38.5396 40.8422 36.4371C41.2646 34.3346 41.0478 32.1553 40.2193 30.1747C39.3907 28.1942 37.9875 26.5015 36.1872 25.3105C34.387 24.1195 32.2704 23.4838 30.1052 23.4838C27.2028 23.4871 24.4202 24.63 22.3679 26.662C20.3156 28.6939 19.1611 31.4489 19.1579 34.3225ZM39.228 34.3225C39.228 36.1089 38.693 37.8552 37.6906 39.3406C36.6881 40.8259 35.2633 41.9836 33.5964 42.6672C31.9294 43.3509 30.0951 43.5297 28.3255 43.1812C26.5558 42.8327 24.9303 41.9725 23.6544 40.7093C22.3786 39.4461 21.5097 37.8367 21.1577 36.0846C20.8057 34.3326 20.9864 32.5165 21.6769 30.866C22.3673 29.2156 23.5366 27.805 25.0369 26.8125C26.5371 25.82 28.3009 25.2903 30.1052 25.2903C32.5239 25.293 34.8427 26.2455 36.553 27.9388C38.2632 29.6321 39.2253 31.9279 39.228 34.3225Z" fill="#20282D"/>
<path d="M24.6315 34.3225C24.6315 34.083 24.5354 33.8532 24.3643 33.6839C24.1933 33.5145 23.9612 33.4193 23.7193 33.4193C23.4773 33.4193 23.2453 33.5145 23.0742 33.6839C22.9031 33.8532 22.807 34.083 22.807 34.3225C22.8092 36.2383 23.5788 38.0749 24.947 39.4296C26.3152 40.7842 28.1703 41.5462 30.1052 41.5483C30.3472 41.5483 30.5792 41.4532 30.7503 41.2838C30.9214 41.1144 31.0175 40.8847 31.0175 40.6451C31.0175 40.4056 30.9214 40.1758 30.7503 40.0064C30.5792 39.837 30.3472 39.7419 30.1052 39.7419C28.654 39.7403 27.2627 39.1688 26.2365 38.1528C25.2103 37.1369 24.6331 35.7594 24.6315 34.3225Z" fill="#20282D"/>
</svg>

<svg xmlns="http://www.w3.org/2000/svg" width="52" height="56" fill="none" viewBox="0 0 52 56"><path fill="#20282d" d="M.912 19.87a.92.92 0 0 0-.645.265.9.9 0 0 0-.267.64v3.612c0 .24.096.47.267.639s.403.264.645.264h1.99c.285 1.228.76 2.405 1.406 3.49l-2.216 2.194a.9.9 0 0 0-.198.985q.07.166.198.293l2.737 2.71a.91.91 0 0 0 .994.195.9.9 0 0 0 .296-.196l2.216-2.194a12.5 12.5 0 0 0 3.525 1.393v2.872c0 .24.096.47.267.639.17.17.403.264.645.264h3.199a14.4 14.4 0 0 0 3.268 6.04 14.6 14.6 0 0 0 5.712 3.87 14.73 14.73 0 0 0 13.353-1.572l9.024 8.933a2.74 2.74 0 0 0 1.935.794 2.76 2.76 0 0 0 1.935-.794A2.7 2.7 0 0 0 52 53.29a2.7 2.7 0 0 0-.802-1.916l-9.023-8.934c2-2.909 2.858-6.441 2.411-9.933a14.38 14.38 0 0 0-4.837-9.023h1.304a.92.92 0 0 0 .645-.265.9.9 0 0 0 .267-.638v-3.448c.18-.472 2.737-7.196 2.737-7.391 0-1.986-.566-3.553-1.682-4.658-1.115-1.105-2.698-1.665-4.704-1.665s-3.59.56-4.705 1.665-1.681 2.672-1.681 4.658c0 .108 2.737 7.39 2.737 7.39v1.462a14.7 14.7 0 0 0-4.562-.723h-3.813a12.3 12.3 0 0 0-1.407-3.49l2.216-2.194a.9.9 0 0 0 .267-.639.9.9 0 0 0-.267-.638l-2.737-2.71a.91.91 0 0 0-.994-.196.9.9 0 0 0-.296.196l-2.216 2.194a12.5 12.5 0 0 0-3.525-1.392V8.129c0-.24-.096-.47-.267-.639a.92.92 0 0 0-.645-.264h-3.65a.92.92 0 0 0-.644.264.9.9 0 0 0-.267.639v2.873a12.5 12.5 0 0 0-3.525 1.392L6.12 10.2a.91.91 0 0 0-.994-.196.9.9 0 0 0-.296.196l-2.737 2.71a.9.9 0 0 0-.198.984q.07.167.198.293l2.216 2.194a12.3 12.3 0 0 0-1.407 3.49zm48.996 32.782a.9.9 0 0 1 .209.99.9.9 0 0 1-.498.493.92.92 0 0 1-1-.206l-8.863-8.774q.685-.6 1.29-1.278zm-16.152-41.07c.054-2.89 1.587-4.356 4.56-4.356 2.976 0 4.51 1.469 4.56 4.367-.257.697-1.503 3.977-2.454 6.471H36.21zm2.735 8.289h3.65v1.806h-2.976a15 15 0 0 0-.674-.348zm6.386 14.452c0 2.5-.749 4.945-2.152 7.024a12.75 12.75 0 0 1-5.73 4.657 12.9 12.9 0 0 1-7.378.721 12.8 12.8 0 0 1-6.54-3.458 12.6 12.6 0 0 1-3.497-6.472 12.53 12.53 0 0 1 .723-7.306 12.67 12.67 0 0 1 4.7-5.676 12.86 12.86 0 0 1 7.093-2.136h.01a12.85 12.85 0 0 1 9.026 3.708 12.6 12.6 0 0 1 3.745 8.937m-28.28-7.226a4.6 4.6 0 0 1-2.535-.761 4.53 4.53 0 0 1-1.68-2.027 4.47 4.47 0 0 1-.26-2.61 4.5 4.5 0 0 1 1.25-2.312 4.6 4.6 0 0 1 2.335-1.236 4.6 4.6 0 0 1 2.635.257c.834.342 1.546.92 2.047 1.664.501.742.769 1.615.769 2.509a4.5 4.5 0 0 1-1.338 3.192 4.6 4.6 0 0 1-3.223 1.324M4.548 20.923c.25-1.485.821-2.9 1.673-4.148a.9.9 0 0 0-.103-1.156l-2.092-2.07 1.447-1.433 2.091 2.071a.916.916 0 0 0 1.168.102 10.7 10.7 0 0 1 4.19-1.656.9.9 0 0 0 .545-.307.9.9 0 0 0 .216-.584v-2.71h1.825v2.71a.91.91 0 0 0 .762.891c1.5.248 2.929.813 4.189 1.656a.92.92 0 0 0 1.168-.102l2.091-2.071 1.447 1.432-2.092 2.071a.9.9 0 0 0-.103 1.156 10.4 10.4 0 0 1 1.673 4.146 14.6 14.6 0 0 0-3.682 2.145q.019-.24.02-.486a6.3 6.3 0 0 0-1.23-3.736 6.4 6.4 0 0 0-3.223-2.295 6.45 6.45 0 0 0-3.969.032 6.4 6.4 0 0 0-3.184 2.346 6.3 6.3 0 0 0-1.17 3.755A6.3 6.3 0 0 0 9.5 26.397a6.4 6.4 0 0 0 3.261 2.24c1.3.385 2.69.35 3.968-.099a14.25 14.25 0 0 0-1.221 5.784q0 .907.114 1.807h-1.939v-2.71a.9.9 0 0 0-.216-.583.9.9 0 0 0-.546-.308 10.7 10.7 0 0 1-4.189-1.656.92.92 0 0 0-1.168.102l-2.091 2.071-1.447-1.432 2.092-2.071a.9.9 0 0 0 .102-1.156 10.4 10.4 0 0 1-1.672-4.148.9.9 0 0 0-.31-.54.92.92 0 0 0-.59-.214H1.825v-1.807h1.824a.92.92 0 0 0 .59-.214.9.9 0 0 0 .31-.54"/><path fill="#20282d" d="M28.377 5.015a.895.895 0 0 0 .408 1.212l1.825.903a.92.92 0 0 0 1.23-.4.895.895 0 0 0-.415-1.215l-1.824-.903a.92.92 0 0 0-1.224.403M37.404.903V2.71c0 .24.096.469.267.638a.917.917 0 0 0 1.29 0 .9.9 0 0 0 .267-.638V.903c0-.24-.096-.47-.267-.638a.917.917 0 0 0-1.29 0 .9.9 0 0 0-.267.638m-4.97.096a.895.895 0 0 0-.408 1.212l.912 1.806a.9.9 0 0 0 .528.458.92.92 0 0 0 .982-.265.9.9 0 0 0 .122-1.001l-.912-1.807a.92.92 0 0 0-1.224-.404m10.54.404L42.06 3.21a.895.895 0 0 0 .405 1.218.92.92 0 0 0 1.227-.41l.912-1.807A.897.897 0 0 0 44.2.993a.92.92 0 0 0-1.227.41m4.057 3.209-1.824.903a.9.9 0 0 0-.463.522.895.895 0 0 0 .268.972.915.915 0 0 0 1.011.121l1.825-.903a.9.9 0 0 0 .462-.522.89.89 0 0 0-.268-.972.915.915 0 0 0-1.01-.121M19.158 34.323c0 2.143.642 4.239 1.845 6.021a10.93 10.93 0 0 0 4.913 3.992c2 .82 4.201 1.035 6.325.617a11 11 0 0 0 5.605-2.966 10.8 10.8 0 0 0 2.996-5.55 10.74 10.74 0 0 0-.623-6.262 10.86 10.86 0 0 0-4.032-4.864 11.025 11.025 0 0 0-13.82 1.351 10.8 10.8 0 0 0-3.21 7.66m20.07 0a8.97 8.97 0 0 1-1.537 5.018 9.1 9.1 0 0 1-4.095 3.326 9.2 9.2 0 0 1-5.27.514 9.15 9.15 0 0 1-4.672-2.472 9 9 0 0 1-2.496-4.624 8.95 8.95 0 0 1 .519-5.219 9.05 9.05 0 0 1 3.36-4.053 9.19 9.19 0 0 1 11.516 1.126 9 9 0 0 1 2.675 6.383"/><path fill="#20282d" d="M24.632 34.323c0-.24-.097-.47-.268-.64a.917.917 0 0 0-1.29 0 .9.9 0 0 0-.267.64 7.2 7.2 0 0 0 2.14 5.107 7.34 7.34 0 0 0 5.158 2.118.92.92 0 0 0 .645-.264.9.9 0 0 0 0-1.278.92.92 0 0 0-.645-.264 5.5 5.5 0 0 1-3.869-1.59 5.4 5.4 0 0 1-1.605-3.83"/></svg>
